; generated by Slic3r 1.2.9 on 2016-06-15 at 21:18:57

; external perimeters extrusion width = 0.50mm
; perimeters extrusion width = 0.85mm
; infill extrusion width = 1.02mm
; solid infill extrusion width = 0.85mm
; top infill extrusion width = 0.85mm

M107
M190 S65 ; set bed temperature
M104 S200 ; set temperature
G28 ; home all axes
G1 Z5 F5000 ; lift nozzle

M109 S200 ; wait for temperature to be reached
G21 ; set units to millimeters
G90 ; use absolute coordinates
M82 ; use absolute distances for extrusion
G92 E0
G1 Z0.200 F7200.000
G1 E-2.00000 F2400.00000
G92 E0
G1 X47.326 Y49.220 F7200.000
G1 E2.00000 F2400.00000
G1 X48.471 Y48.129 E2.01358 F1200.000
G1 X56.471 Y42.129 E2.09946
G1 X58.529 Y41.082 E2.11929
G1 X60.499 Y40.786 E2.13640
G1 X109.616 Y40.787 E2.55820
G1 X132.626 Y41.187 E2.75584 F1200.000
G1 X133.675 Y41.288 E2.76489
G1 X134.795 Y41.485 E2.77466
G1 X135.926 Y41.788 E2.78471
G1 X136.995 Y42.177 E2.79448
G1 X138.055 Y42.672 E2.80453
G1 X139.040 Y43.241 E2.81430
G1 X139.999 Y43.912 E2.82435
G1 X140.870 Y44.643 E2.83411
G1 X141.698 Y45.470 E2.84417
G1 X142.429 Y46.342 E2.85393
G1 X143.100 Y47.300 E2.86398
G1 X143.669 Y48.285 E2.87375
G1 X144.164 Y49.346 E2.88380
G1 X144.553 Y50.415 E2.89357
G1 X144.855 Y51.545 E2.90362
G1 X145.053 Y52.666 E2.91339
G1 X145.155 Y53.831 E2.92344
G1 X145.155 Y134.969 E3.62023
G1 X145.053 Y136.135 E3.63028
G1 X144.855 Y137.255 E3.64005
G1 X144.553 Y138.385 E3.65010
G1 X144.164 Y139.454 E3.65986
G1 X143.669 Y140.515 E3.66992
G1 X143.100 Y141.500 E3.67968
G1 X142.429 Y142.458 E3.68973
G1 X141.698 Y143.330 E3.69950
G1 X140.871 Y144.157 E3.70955
G1 X139.999 Y144.888 E3.71932
G1 X139.040 Y145.559 E3.72937
G1 X138.055 Y146.128 E3.73914
G1 X136.995 Y146.623 E3.74919
G1 X135.926 Y147.012 E3.75896
G1 X134.795 Y147.315 E3.76901
G1 X133.675 Y147.512 E3.77877
G1 X132.626 Y147.613 E3.78783
G1 X109.616 Y148.013 E3.98546
G1 X60.499 Y148.014 E4.40727
G1 X58.225 Y147.617 E4.42710
G1 X56.471 Y146.671 E4.44421
G1 X48.471 Y140.671 E4.53009
G1 X46.889 Y138.989 E4.54992
G1 X45.971 Y136.870 E4.56974
G1 X45.785 Y135.300 E4.58332
G1 X45.785 Y53.500 E5.28581
G1 X46.182 Y51.225 E5.30564
G1 X47.289 Y49.285 E5.32482
G1 X47.647 Y49.409 F7200.000
G1 X47.680 Y49.354 E5.32537 F1200.000
G1 X48.685 Y48.414 E5.33719
G1 X56.685 Y42.414 E5.42306
G1 X58.692 Y41.405 E5.44235
G1 X60.499 Y41.143 E5.45804
G1 X109.610 Y41.144 E5.87979
G1 X132.620 Y41.544 E6.07743 F1200.000
G1 X133.613 Y41.639 E6.08600
G1 X134.733 Y41.837 E6.09576
G1 X135.804 Y42.124 E6.10528
G1 X136.873 Y42.513 E6.11505
G1 X137.877 Y42.981 E6.12456
G1 X138.862 Y43.550 E6.13433
G1 X139.770 Y44.185 E6.14385
G1 X140.641 Y44.916 E6.15362
G1 X141.424 Y45.700 E6.16313
G1 X142.155 Y46.571 E6.17290
G1 X142.791 Y47.479 E6.18242
G1 X143.360 Y48.464 E6.19218
G1 X143.828 Y49.468 E6.20170
G1 X144.217 Y50.537 E6.21147
G1 X144.504 Y51.607 E6.22098
G1 X144.701 Y52.728 E6.23075
G1 X144.798 Y53.831 E6.24027
G1 X144.798 Y134.969 E6.93706
G1 X144.701 Y136.073 E6.94657
G1 X144.504 Y137.193 E6.95634
G1 X144.217 Y138.263 E6.96586
G1 X143.828 Y139.332 E6.97562
G1 X143.360 Y140.336 E6.98514
G1 X142.791 Y141.321 E6.99491
G1 X142.155 Y142.229 E7.00442
G1 X141.424 Y143.100 E7.01419
G1 X140.641 Y143.883 E7.02371
G1 X139.769 Y144.615 E7.03348
G1 X138.862 Y145.250 E7.04299
G1 X137.877 Y145.819 E7.05276
G1 X136.873 Y146.287 E7.06228
G1 X135.804 Y146.676 E7.07204
G1 X134.733 Y146.963 E7.08156
G1 X133.613 Y147.160 E7.09133
G1 X132.620 Y147.256 E7.09990
G1 X109.610 Y147.656 E7.29753
G1 X60.499 Y147.657 E7.71928
G1 X58.288 Y147.260 E7.73857
G1 X56.685 Y146.386 E7.75426
G1 X48.685 Y140.386 E7.84014
G1 X47.154 Y138.742 E7.85943
G1 X46.291 Y136.668 E7.87872
G1 X46.142 Y135.300 E7.89053
G1 X46.142 Y53.500 E8.59302
G1 X46.539 Y51.289 E8.61231
G1 X47.609 Y49.474 E8.63040
G1 E6.63040 F2400.00000
G92 E0
G1 X125.667 Y133.700 F7200.000
G1 E2.00000 F2400.00000
G1 X125.832 Y132.763 E2.00817 F1200.000
G1 X126.209 Y131.727 E2.01764
G1 X126.760 Y130.773 E2.02710
G1 X127.469 Y129.928 E2.03657
G1 X128.313 Y129.220 E2.04604
G1 X129.268 Y128.668 E2.05550
G1 X130.304 Y128.291 E2.06497
G1 X131.390 Y128.100 E2.07444
G1 X132.492 Y128.100 E2.08390
G1 X133.578 Y128.291 E2.09337
G1 X134.613 Y128.668 E2.10284
G1 X135.568 Y129.220 E2.11230
G1 X136.413 Y129.928 E2.12177
G1 X137.121 Y130.773 E2.13124
G1 X137.672 Y131.727 E2.14070
G1 X138.049 Y132.763 E2.15017
G1 X138.241 Y133.849 E2.15964
G1 X138.241 Y134.951 E2.16910
G1 X138.049 Y136.037 E2.17857
G1 X137.672 Y137.073 E2.18804
G1 X137.121 Y138.027 E2.19751
G1 X136.413 Y138.872 E2.20697
G1 X135.568 Y139.580 E2.21644
G1 X134.613 Y140.132 E2.22591
G1 X133.578 Y140.509 E2.23537
G1 X132.492 Y140.700 E2.24484
G1 X131.390 Y140.700 E2.25431
G1 X130.304 Y140.509 E2.26377
G1 X129.268 Y140.132 E2.27324
G1 X128.313 Y139.580 E2.28271
G1 X127.469 Y138.872 E2.29217
G1 X126.760 Y138.027 E2.30164
G1 X126.209 Y137.073 E2.31111
G1 X125.832 Y136.037 E2.32057
G1 X125.667 Y135.100 E2.32874
G1 X110.416 Y135.100 E2.45971
G1 X109.299 Y136.217 E2.47328
G1 X109.299 Y141.100 E2.51521
G1 X106.699 Y141.100 E2.53754
G1 X106.699 Y136.217 E2.57947
G1 X105.582 Y135.100 E2.59304
G1 X98.699 Y135.100 E2.65215
G1 X98.699 Y133.700 E2.66417
G1 X105.582 Y133.700 E2.72328
G1 X106.699 Y132.583 E2.73685
G1 X106.699 Y127.700 E2.77878
G1 X109.299 Y127.700 E2.80111
G1 X109.299 Y132.583 E2.84304
G1 X110.416 Y133.700 E2.85661
G1 X125.592 Y133.700 E2.98694
G1 X126.164 Y133.758 F7200.000
G1 X125.967 Y134.057 F7200.000
G1 X126.178 Y132.856 E2.99741 F1200.000
G1 X126.534 Y131.879 E3.00634
G1 X127.054 Y130.978 E3.01527
G1 X127.722 Y130.182 E3.02420
G1 X128.519 Y129.513 E3.03313
G1 X129.420 Y128.993 E3.04206
G1 X130.397 Y128.638 E3.05099
G1 X131.421 Y128.457 E3.05992
G1 X132.461 Y128.457 E3.06885
G1 X133.485 Y128.638 E3.07778
G1 X134.462 Y128.993 E3.08671
G1 X135.363 Y129.513 E3.09564
G1 X136.159 Y130.182 E3.10457
G1 X136.828 Y130.978 E3.11350
G1 X137.347 Y131.879 E3.12243
G1 X137.703 Y132.856 E3.13136
G1 X137.884 Y133.880 E3.14029
G1 X137.884 Y134.920 E3.14923
G1 X137.703 Y135.944 E3.15816
G1 X137.347 Y136.921 E3.16709
G1 X136.828 Y137.822 E3.17602
G1 X136.159 Y138.618 E3.18495
G1 X135.363 Y139.287 E3.19388
G1 X134.462 Y139.807 E3.20281
G1 X133.485 Y140.162 E3.21174
G1 X132.461 Y140.343 E3.22067
G1 X131.421 Y140.343 E3.22960
G1 X130.397 Y140.162 E3.23853
G1 X129.420 Y139.807 E3.24746
G1 X128.519 Y139.287 E3.25639
G1 X127.722 Y138.618 E3.26532
G1 X127.054 Y137.822 E3.27425
G1 X126.534 Y136.921 E3.28318
G1 X126.178 Y135.944 E3.29211
G1 X125.967 Y134.743 E3.30258
G1 X110.268 Y134.743 E3.43740
G1 X108.942 Y136.069 E3.45350
G1 X108.942 Y140.743 E3.49364
G1 X107.056 Y140.743 E3.50984
G1 X107.056 Y136.069 E3.54997
G1 X105.730 Y134.743 E3.56608
G1 X99.056 Y134.743 E3.62339
G1 X99.056 Y134.057 E3.62928
G1 X105.730 Y134.057 E3.68659
G1 X107.056 Y132.731 E3.70270
G1 X107.056 Y128.057 E3.74284
G1 X108.942 Y128.057 E3.75903
G1 X108.942 Y132.731 E3.79917
G1 X110.268 Y134.057 E3.81528
G1 X125.892 Y134.057 E3.94945
G1 X126.318 Y134.119 F7200.000
G1 X126.525 Y132.949 E3.95965 F1200.000
G1 X126.859 Y132.030 E3.96805
G1 X127.348 Y131.184 E3.97644
G1 X127.976 Y130.435 E3.98483
G1 X128.725 Y129.807 E3.99323
G1 X129.571 Y129.318 E4.00162
G1 X130.490 Y128.984 E4.01002
G1 X131.452 Y128.814 E4.01841
G1 X132.429 Y128.814 E4.02680
G1 X133.392 Y128.984 E4.03520
G1 X134.310 Y129.318 E4.04359 F1200.000
G1 X135.157 Y129.807 E4.05198
G1 X135.906 Y130.435 E4.06038
G1 X136.534 Y131.184 E4.06877
G1 X137.023 Y132.030 E4.07717
G1 X137.357 Y132.949 E4.08556
G1 X137.527 Y133.911 E4.09395
G1 X137.527 Y134.889 E4.10235
G1 X137.357 Y135.851 E4.11074
G1 X137.023 Y136.770 E4.11913
G1 X136.534 Y137.616 E4.12753
G1 X135.906 Y138.365 E4.13592
G1 X135.157 Y138.993 E4.14431
G1 X134.310 Y139.482 E4.15271
G1 X133.392 Y139.816 E4.16110
G1 X132.429 Y139.986 E4.16950
G1 X131.452 Y139.986 E4.17789
G1 X130.490 Y139.816 E4.18628
G1 X129.571 Y139.482 E4.19468
G1 X128.725 Y138.993 E4.20307
G1 X127.976 Y138.365 E4.21146
G1 X127.348 Y137.616 E4.21986
G1 X126.859 Y136.770 E4.22825
G1 X126.525 Y135.851 E4.23664
G1 X126.269 Y134.400 E4.24930
G1 X126.305 Y134.193 E4.25111
G1 X127.541 Y134.119 F7200.000
G1 X127.541 Y134.015 E4.25200 F1200.000
G1 X127.674 Y133.257 E4.25861
G1 X127.938 Y132.533 E4.26522
G1 X128.323 Y131.867 E4.27183
G1 X128.818 Y131.277 E4.27845
G1 X129.407 Y130.782 E4.28506
G1 X130.074 Y130.397 E4.29167
G1 X130.798 Y130.134 E4.29828
G1 X131.556 Y130.000 E4.30489
G1 X132.326 Y130.000 E4.31150 F1200.000
G1 X133.084 Y130.134 E4.31812
G1 X133.807 Y130.397 E4.32473
G1 X134.474 Y130.782 E4.33134
G1 X135.064 Y131.277 E4.33795
G1 X135.559 Y131.867 E4.34456
G1 X135.944 Y132.533 E4.35118
G1 X136.207 Y133.257 E4.35779
G1 X136.341 Y134.015 E4.36440
G1 X136.341 Y134.785 E4.37101
G1 X136.207 Y135.543 E4.37762
G1 X135.944 Y136.267 E4.38423
G1 X135.559 Y136.933 E4.39085
G1 X135.064 Y137.523 E4.39746
G1 X134.474 Y138.018 E4.40407
G1 X133.807 Y138.403 E4.41068
G1 X133.084 Y138.666 E4.41729
G1 X132.326 Y138.800 E4.42390
G1 X131.556 Y138.800 E4.43052
G1 X130.798 Y138.666 E4.43713
G1 X130.074 Y138.403 E4.44374
G1 X129.407 Y138.018 E4.45035
G1 X128.818 Y137.523 E4.45696
G1 X128.323 Y136.933 E4.46357
G1 X127.938 Y136.267 E4.47019
G1 X127.674 Y135.543 E4.47680
G1 X127.541 Y134.785 E4.48341
G1 X127.541 Y134.194 E4.48848
G1 X127.451 Y134.067 F7200.000
G1 X127.184 Y134.119 F7200.000
G1 X127.184 Y133.984 E4.48965 F1200.000
G1 X127.328 Y133.164 E4.49679
G1 X127.613 Y132.382 E4.50394
G1 X128.029 Y131.661 E4.51109
G1 X128.564 Y131.023 E4.51824
G1 X129.202 Y130.488 E4.52539
G1 X129.923 Y130.072 E4.53254
G1 X130.705 Y129.787 E4.53968
G1 X131.525 Y129.643 E4.54683
G1 X132.357 Y129.643 E4.55398 F1200.000
G1 X133.177 Y129.787 E4.56113
G1 X133.959 Y130.072 E4.56828
G1 X134.680 Y130.488 E4.57543
G1 X135.317 Y131.023 E4.58257
G1 X135.852 Y131.661 E4.58972
G1 X136.269 Y132.382 E4.59687
G1 X136.553 Y133.164 E4.60402
G1 X136.698 Y133.984 E4.61117
G1 X136.698 Y134.816 E4.61832
G1 X136.553 Y135.636 E4.62546
G1 X136.269 Y136.418 E4.63261
G1 X135.852 Y137.139 E4.63976
G1 X135.317 Y137.777 E4.64691
G1 X134.680 Y138.312 E4.65406
G1 X133.959 Y138.728 E4.66121
G1 X133.177 Y139.013 E4.66835
G1 X132.357 Y139.157 E4.67550
G1 X131.525 Y139.157 E4.68265
G1 X130.705 Y139.013 E4.68980
G1 X129.923 Y138.728 E4.69695
G1 X129.202 Y138.312 E4.70410
G1 X128.564 Y137.777 E4.71124
G1 X128.029 Y137.139 E4.71839
G1 X127.613 Y136.418 E4.72554
G1 X127.328 Y135.636 E4.73269
G1 X127.184 Y134.816 E4.73984
G1 X127.184 Y134.194 E4.74518
G1 X126.827 Y134.119 F7200.000
G1 X126.827 Y133.953 E4.74661 F1200.000
G1 X126.982 Y133.071 E4.75429
G1 X127.288 Y132.230 E4.76198
G1 X127.736 Y131.455 E4.76966
G1 X128.311 Y130.770 E4.77735
G1 X128.996 Y130.195 E4.78503
G1 X129.771 Y129.747 E4.79272
G1 X130.612 Y129.441 E4.80040
G1 X131.493 Y129.286 E4.80809
G1 X132.388 Y129.286 E4.81577 F1200.000
G1 X133.269 Y129.441 E4.82346
G1 X134.110 Y129.747 E4.83114
G1 X134.885 Y130.195 E4.83883
G1 X135.571 Y130.770 E4.84651
G1 X136.146 Y131.455 E4.85420
G1 X136.593 Y132.230 E4.86188
G1 X136.900 Y133.071 E4.86957
G1 X137.055 Y133.953 E4.87725
G1 X137.055 Y134.847 E4.88494
G1 X136.900 Y135.729 E4.89262
G1 X136.593 Y136.570 E4.90031
G1 X136.146 Y137.345 E4.90799
G1 X135.571 Y138.030 E4.91568
G1 X134.885 Y138.605 E4.92336
G1 X134.110 Y139.053 E4.93105
G1 X133.269 Y139.359 E4.93873
G1 X132.388 Y139.514 E4.94642
G1 X131.493 Y139.514 E4.95410
G1 X130.612 Y139.359 E4.96179
G1 X129.771 Y139.053 E4.96947
G1 X128.996 Y138.605 E4.97716
G1 X128.311 Y138.030 E4.98484
G1 X127.736 Y137.345 E4.99253
G1 X127.288 Y136.570 E5.00021
G1 X126.982 Y135.729 E5.00790
G1 X126.827 Y134.847 E5.01558
G1 X126.827 Y134.194 E5.02119
G1 E3.02119 F2400.00000
G92 E0
G1 X110.106 Y134.400 F7200.000
G1 E2.00000 F2400.00000
G1 X108.585 Y135.921 E2.01848 F1200.000
G1 X108.585 Y140.386 E2.05682
G1 X107.413 Y140.386 E2.06688
G1 X107.413 Y135.921 E2.10522
G1 X105.892 Y134.400 E2.12370
G1 X107.413 Y132.879 E2.14217
G1 X107.413 Y128.414 E2.18051
G1 X108.585 Y128.414 E2.19057
G1 X108.585 Y132.879 E2.22892
G1 X110.053 Y134.347 E2.24675
G1 X110.359 Y134.400 F7200.000
G1 X126.087 Y134.400 E2.53313 F1200.000
G1 X126.550 Y134.400 F7200.000
G1 X126.592 Y133.927 E2.53721 F1200.000
G1 X126.753 Y133.010 E2.54520 F1200.000
G1 X127.072 Y132.135 E2.55320
G1 X127.539 Y131.324 E2.56124
G1 X128.143 Y130.603 E2.56932
G1 X128.857 Y130.004 E2.57732
G1 X129.671 Y129.533 E2.58540
G1 X130.551 Y129.213 E2.59344
G1 X131.473 Y129.050 E2.60148
G1 X132.409 Y129.050 E2.60952
G1 X133.331 Y129.213 E2.61756
G1 X134.210 Y129.533 E2.62559
G1 X135.021 Y130.001 E2.63363
G1 X135.741 Y130.606 E2.64172
G1 X136.343 Y131.324 E2.64975
G1 X136.808 Y132.130 E2.65775
G1 X137.127 Y133.005 E2.66575
G1 X137.291 Y133.932 E2.67383
G1 X137.291 Y134.868 E2.68187
G1 X137.128 Y135.790 E2.68991
G1 X136.808 Y136.670 E2.69794
G1 X136.340 Y137.480 E2.70598
G1 X135.734 Y138.201 E2.71407
G1 X135.021 Y138.799 E2.72206
G1 X134.215 Y139.265 E2.73006
G1 X133.335 Y139.586 E2.73810
G1 X132.409 Y139.750 E2.74618
G1 X131.473 Y139.750 E2.75422
G1 X130.551 Y139.587 E2.76226
G1 X129.671 Y139.267 E2.77030
G1 X128.861 Y138.799 E2.77833
G1 X128.143 Y138.197 E2.78637
G1 X127.542 Y137.480 E2.79441
G1 X127.074 Y136.670 E2.80245
G1 X126.753 Y135.790 E2.81049
G1 X126.592 Y134.873 E2.81849
G1 X126.556 Y134.475 E2.82192
G1 E0.82192 F2400.00000
G92 E0
G1 X126.550 Y134.400 F7200.000
G1 X107.499 Y128.500 F7200.000
G1 X107.717 Y128.718 F7200.000
G1 E2.00000 F2400.00000
G1 X108.282 Y128.718 E2.00506 F1200.000
G1 X108.282 Y133.004 E2.04351
G1 X109.677 Y134.400 E2.06121
G1 X108.282 Y135.796 E2.07891
G1 X108.282 Y140.082 E2.11735
G1 X107.717 Y140.082 E2.12241
G1 X107.717 Y135.796 E2.16086
G1 X106.321 Y134.400 E2.17856
G1 X107.717 Y133.004 E2.19626
G1 X107.717 Y128.793 E2.23403
G1 X107.999 Y133.249 F7200.000
G1 X109.150 Y134.400 E2.24862 F1200.000
G1 X107.999 Y135.551 E2.26321
G1 X106.849 Y134.400 E2.27781
G1 X107.946 Y133.302 E2.29173
G1 X107.999 Y133.777 F7200.000
G1 X108.623 Y134.400 E2.29963 F1200.000
G1 X107.999 Y135.023 E2.30754
G1 X107.376 Y134.400 E2.31544
G1 X107.946 Y133.830 E2.32267
G1 X105.640 Y134.400 F7200.000
G1 X99.235 Y134.400 E2.43929 F1200.000
G1 E0.43929 F2400.00000
G92 E0
G1 X110.499 Y133.500 F7200.000
G1 X115.499 Y127.500 F7200.000
G1 X119.967 Y124.400 F7200.000
G1 X120.500 Y123.257 F7200.000
G1 X126.596 Y118.142 F7200.000
G1 X125.667 Y115.100 F7200.000
G1 E2.00000 F2400.00000
G1 X110.416 Y115.100 E2.13097 F1200.000
G1 X109.299 Y116.217 E2.14454
G1 X109.299 Y121.100 E2.18647
G1 X106.699 Y121.100 E2.20880
G1 X106.699 Y116.217 E2.25073
G1 X105.582 Y115.100 E2.26430
G1 X98.699 Y115.100 E2.32341
G1 X98.699 Y113.700 E2.33543
G1 X105.582 Y113.700 E2.39454
G1 X106.699 Y112.583 E2.40811
G1 X106.699 Y107.700 E2.45004
G1 X109.299 Y107.700 E2.47237
G1 X109.299 Y112.583 E2.51430
G1 X110.416 Y113.700 E2.52787
G1 X125.667 Y113.700 E2.65884
G1 X125.832 Y112.763 E2.66701
G1 X126.209 Y111.727 E2.67647
G1 X126.760 Y110.773 E2.68594
G1 X127.469 Y109.928 E2.69541
G1 X128.313 Y109.220 E2.70487
G1 X129.268 Y108.668 E2.71434
G1 X130.304 Y108.291 E2.72381
G1 X131.390 Y108.100 E2.73327
G1 X132.492 Y108.100 E2.74274
G1 X133.578 Y108.291 E2.75221
G1 X134.613 Y108.668 E2.76168
G1 X135.568 Y109.220 E2.77114
G1 X136.413 Y109.928 E2.78061
G1 X137.088 Y110.734 E2.78964
G1 X137.673 Y111.728 E2.79954
G1 X138.049 Y112.763 E2.80900
G1 X138.241 Y113.849 E2.81847
G1 X138.241 Y114.951 E2.82794
G1 X138.049 Y116.037 E2.83740
G1 X137.672 Y117.073 E2.84687
G1 X137.121 Y118.027 E2.85634
G1 X136.413 Y118.872 E2.86580
G1 X135.568 Y119.580 E2.87527
G1 X134.613 Y120.132 E2.88474
G1 X133.578 Y120.509 E2.89420
G1 X132.492 Y120.700 E2.90367
G1 X131.390 Y120.700 E2.91314
G1 X130.304 Y120.509 E2.92260
G1 X129.268 Y120.132 E2.93207
G1 X128.313 Y119.580 E2.94154
G1 X127.469 Y118.872 E2.95101
G1 X126.760 Y118.027 E2.96047
G1 X126.209 Y117.073 E2.96994
G1 X125.832 Y116.037 E2.97941
G1 X125.680 Y115.174 E2.98693
G1 X125.638 Y114.601 F7200.000
G1 X125.967 Y114.743 F7200.000
G1 X110.268 Y114.743 E3.12174 F1200.000
G1 X108.942 Y116.069 E3.13785
G1 X108.942 Y120.743 E3.17799
G1 X107.056 Y120.743 E3.19418
