; generated by Slic3r 1.2.9 on 2016-06-15 at 20:01:14

; external perimeters extrusion width = 0.50mm
; perimeters extrusion width = 0.85mm
; infill extrusion width = 1.02mm
; solid infill extrusion width = 0.85mm
; top infill extrusion width = 0.85mm

M107
M190 S65 ; set bed temperature
M104 S200 ; set temperature
G28 ; home all axes
G1 Z5 F5000 ; lift nozzle

M109 S200 ; wait for temperature to be reached
G21 ; set units to millimeters
G90 ; use absolute coordinates
M82 ; use absolute distances for extrusion
G92 E0
G1 Z0.200 F7200.000
G1 E-2.00000 F2400.00000
G92 E0
G1 X75.572 Y93.157 F7200.000
G1 E2.00000 F2400.00000
G1 X83.572 Y87.157 E2.08588 F1200.000
G1 X85.728 Y86.037 E2.10674
G1 X88.029 Y85.672 E2.12675
G1 X91.158 Y85.673 E2.15362
G1 X114.169 Y86.073 E2.35126 F1200.000
G1 X115.329 Y86.185 E2.36127
G1 X116.449 Y86.382 E2.37104
G1 X117.700 Y86.717 E2.38216
G1 X118.769 Y87.106 E2.39193
G1 X119.942 Y87.653 E2.40305
G1 X120.927 Y88.222 E2.41282
G1 X121.988 Y88.965 E2.42394
G1 X122.859 Y89.696 E2.43370
G1 X123.775 Y90.611 E2.44482
G1 X124.506 Y91.483 E2.45459
G1 X125.249 Y92.543 E2.46571
G1 X125.817 Y93.528 E2.47548
G1 X126.365 Y94.702 E2.48660
G1 X126.754 Y95.771 E2.49637
G1 X127.089 Y97.021 E2.50749
G1 X127.286 Y98.142 E2.51725
G1 X127.399 Y99.431 E2.52837
G1 X127.399 Y100.569 E2.53814
G1 X127.286 Y101.859 E2.54926
G1 X127.089 Y102.979 E2.55903
G1 X126.754 Y104.229 E2.57015
G1 X126.365 Y105.298 E2.57992
G1 X125.817 Y106.472 E2.59104
G1 X125.249 Y107.457 E2.60080
G1 X124.506 Y108.517 E2.61192
G1 X123.775 Y109.389 E2.62169
G1 X122.859 Y110.304 E2.63281
G1 X121.988 Y111.035 E2.64258
G1 X120.927 Y111.778 E2.65370
G1 X119.942 Y112.347 E2.66346
G1 X118.769 Y112.894 E2.67458
G1 X117.700 Y113.283 E2.68435
G1 X116.449 Y113.618 E2.69547
G1 X115.329 Y113.815 E2.70524
G1 X114.169 Y113.927 E2.71525
G1 X91.029 Y114.328 E2.91400
G1 X88.029 Y114.328 E2.93976
G1 X85.632 Y113.931 E2.96063
G1 X83.572 Y112.843 E2.98064
G1 X75.572 Y106.843 E3.06651
G1 X73.893 Y105.087 E3.08738
G1 X72.870 Y102.883 E3.10824
G1 X72.601 Y100.900 E3.12543
G1 X72.601 Y99.100 E3.14089
G1 X72.998 Y96.703 E3.16175
G1 X74.148 Y94.563 E3.18261
G1 X75.519 Y93.210 E3.19916
G1 X75.786 Y93.443 F7200.000
G1 X83.786 Y87.443 E3.28503 F1200.000
G1 X85.894 Y86.359 E3.30539
G1 X88.029 Y86.029 E3.32394
G1 X91.152 Y86.030 E3.35076
G1 X114.162 Y86.430 E3.54840 F1200.000
G1 X115.267 Y86.536 E3.55793
G1 X116.387 Y86.734 E3.56770
G1 X117.578 Y87.053 E3.57828
G1 X118.647 Y87.442 E3.58805
G1 X119.764 Y87.963 E3.59864
G1 X120.749 Y88.531 E3.60840
G1 X121.758 Y89.238 E3.61899
G1 X122.630 Y89.969 E3.62876
G1 X123.501 Y90.841 E3.63934
G1 X124.233 Y91.712 E3.64911
G1 X124.939 Y92.722 E3.65969
G1 X125.508 Y93.707 E3.66946
G1 X126.029 Y94.824 E3.68005
G1 X126.418 Y95.893 E3.68982
G1 X126.737 Y97.083 E3.70040
G1 X126.935 Y98.204 E3.71017
G1 X127.042 Y99.431 E3.72075
G1 X127.042 Y100.569 E3.73052
G1 X126.935 Y101.797 E3.74111
G1 X126.737 Y102.917 E3.75087
G1 X126.418 Y104.107 E3.76146
G1 X126.029 Y105.176 E3.77123
G1 X125.508 Y106.293 E3.78181
G1 X124.939 Y107.278 E3.79158
G1 X124.233 Y108.288 E3.80216
G1 X123.501 Y109.159 E3.81193
G1 X122.630 Y110.031 E3.82252
G1 X121.759 Y110.762 E3.83228
G1 X120.749 Y111.469 E3.84287
G1 X119.764 Y112.037 E3.85264
G1 X118.647 Y112.558 E3.86322
G1 X117.578 Y112.947 E3.87299
G1 X116.387 Y113.266 E3.88357
G1 X115.267 Y113.464 E3.89334
G1 X114.162 Y113.570 E3.90287
G1 X91.029 Y113.971 E4.10157
G1 X88.029 Y113.971 E4.12733
G1 X85.693 Y113.574 E4.14768
G1 X83.786 Y112.557 E4.16624
G1 X75.786 Y106.557 E4.25212
G1 X74.156 Y104.837 E4.27247
G1 X73.184 Y102.675 E4.29282
G1 X72.958 Y100.900 E4.30819
G1 X72.958 Y99.100 E4.32365
G1 X73.355 Y96.763 E4.34401
G1 X74.502 Y94.689 E4.36436
G1 X75.733 Y93.495 E4.37908
G1 X76.001 Y93.729 F7200.000
G1 X84.001 Y87.729 E4.46496 F1200.000
G1 X86.059 Y86.682 E4.48479
G1 X88.029 Y86.386 E4.50190
G1 X91.146 Y86.387 E4.52867
G1 X114.156 Y86.787 E4.72631 F1200.000
G1 X115.205 Y86.888 E4.73536
G1 X116.325 Y87.085 E4.74513
G1 X117.456 Y87.388 E4.75518
G1 X118.525 Y87.777 E4.76494
G1 X119.585 Y88.272 E4.77500
G1 X120.570 Y88.841 E4.78476
G1 X121.529 Y89.512 E4.79481
G1 X122.400 Y90.243 E4.80458
G1 X123.228 Y91.070 E4.81463
G1 X123.959 Y91.942 E4.82440
G1 X124.630 Y92.900 E4.83445
G1 X125.199 Y93.885 E4.84422
G1 X125.694 Y94.946 E4.85427
G1 X126.083 Y96.015 E4.86404
G1 X126.385 Y97.145 E4.87409
G1 X126.583 Y98.266 E4.88385
G1 X126.685 Y99.431 E4.89390
G1 X126.685 Y100.569 E4.90367
G1 X126.583 Y101.735 E4.91372
G1 X126.385 Y102.855 E4.92349
G1 X126.083 Y103.985 E4.93354
G1 X125.694 Y105.054 E4.94331
G1 X125.199 Y106.115 E4.95336
G1 X124.630 Y107.100 E4.96313
G1 X123.959 Y108.058 E4.97318
G1 X123.228 Y108.930 E4.98294
G1 X122.400 Y109.757 E4.99299
G1 X121.529 Y110.488 E5.00276
G1 X120.570 Y111.159 E5.01281
G1 X119.585 Y111.728 E5.02258
G1 X118.525 Y112.223 E5.03263
G1 X117.456 Y112.612 E5.04240
G1 X116.325 Y112.915 E5.05245
G1 X115.205 Y113.112 E5.06222
G1 X114.156 Y113.213 E5.07127
G1 X91.029 Y113.614 E5.26991
G1 X88.029 Y113.614 E5.29567
G1 X85.755 Y113.217 E5.31550
G1 X84.001 Y112.271 E5.33261
G1 X76.001 Y106.271 E5.41849
G1 X74.419 Y104.589 E5.43832
G1 X73.501 Y102.470 E5.45815
G1 X73.315 Y100.900 E5.47173
G1 X73.315 Y99.100 E5.48719
G1 X73.712 Y96.825 E5.50702
G1 X74.856 Y94.820 E5.52684
G1 X75.946 Y93.780 E5.53978
G1 X76.215 Y94.014 F7200.000
G1 X84.215 Y88.014 E5.62566 F1200.000
G1 X86.222 Y87.005 E5.64495
G1 X88.029 Y86.743 E5.66063
G1 X91.140 Y86.744 E5.68735
G1 X114.150 Y87.144 E5.88498 F1200.000
G1 X115.143 Y87.239 E5.89355
G1 X116.263 Y87.437 E5.90332
G1 X117.334 Y87.724 E5.91284
G1 X118.403 Y88.113 E5.92260
G1 X119.407 Y88.581 E5.93212
G1 X120.392 Y89.150 E5.94189
G1 X121.299 Y89.785 E5.95140
G1 X122.171 Y90.516 E5.96117
G1 X122.954 Y91.300 E5.97069
G1 X123.685 Y92.171 E5.98046
G1 X124.321 Y93.079 E5.98997
G1 X124.890 Y94.064 E5.99974
G1 X125.358 Y95.068 E6.00925
G1 X125.747 Y96.137 E6.01902
G1 X126.034 Y97.207 E6.02854
G1 X126.231 Y98.328 E6.03831
G1 X126.328 Y99.431 E6.04782
G1 X126.328 Y100.569 E6.05759
G1 X126.231 Y101.673 E6.06711
G1 X126.034 Y102.793 E6.07687
G1 X125.747 Y103.863 E6.08639
G1 X125.358 Y104.932 E6.09616
G1 X124.890 Y105.936 E6.10567
G1 X124.321 Y106.921 E6.11544
G1 X123.685 Y107.829 E6.12496
G1 X122.954 Y108.700 E6.13472
G1 X122.171 Y109.484 E6.14424
G1 X121.300 Y110.215 E6.15401
G1 X120.392 Y110.850 E6.16352
G1 X119.407 Y111.419 E6.17329
G1 X118.403 Y111.887 E6.18281
G1 X117.334 Y112.276 E6.19257
G1 X116.263 Y112.563 E6.20209
G1 X115.143 Y112.761 E6.21186
G1 X114.150 Y112.856 E6.22043
G1 X91.029 Y113.257 E6.41901
G1 X88.029 Y113.257 E6.44478
G1 X85.818 Y112.860 E6.46407
G1 X84.215 Y111.986 E6.47975
G1 X76.215 Y105.986 E6.56563
G1 X74.684 Y104.342 E6.58492
G1 X73.821 Y102.268 E6.60421
G1 X73.672 Y100.900 E6.61603
G1 X73.672 Y99.100 E6.63149
G1 X74.069 Y96.889 E6.65078
G1 X75.210 Y94.954 E6.67007
G1 X76.160 Y94.066 E6.68124
G1 E4.68124 F2400.00000
G92 E0
G1 X107.197 Y100.700 F7200.000
G1 E2.00000 F2400.00000
G1 X91.946 Y100.700 E2.13097 F1200.000
G1 X90.829 Y101.817 E2.14454
G1 X90.829 Y106.700 E2.18647
G1 X88.229 Y106.700 E2.20880
G1 X88.229 Y101.817 E2.25073
G1 X87.112 Y100.700 E2.26430
G1 X80.229 Y100.700 E2.32341
G1 X80.229 Y99.300 E2.33543
G1 X87.112 Y99.300 E2.39454
G1 X88.229 Y98.183 E2.40811
G1 X88.229 Y93.300 E2.45004
G1 X90.829 Y93.300 E2.47237
G1 X90.829 Y98.183 E2.51430
G1 X91.946 Y99.300 E2.52787
G1 X107.197 Y99.300 E2.65884
G1 X107.362 Y98.363 E2.66701
G1 X107.739 Y97.327 E2.67647
G1 X108.290 Y96.373 E2.68594
G1 X108.999 Y95.528 E2.69541
G1 X109.843 Y94.820 E2.70487
G1 X110.798 Y94.268 E2.71434
G1 X111.834 Y93.891 E2.72381
G1 X112.920 Y93.700 E2.73328
G1 X114.022 Y93.700 E2.74274
G1 X115.108 Y93.891 E2.75221
G1 X116.143 Y94.268 E2.76168
G1 X117.098 Y94.820 E2.77114
G1 X117.943 Y95.528 E2.78061
G1 X118.651 Y96.373 E2.79008
G1 X119.202 Y97.327 E2.79954
G1 X119.562 Y98.315 E2.80857
G1 X119.771 Y99.450 E2.81848
G1 X119.771 Y100.551 E2.82794
G1 X119.579 Y101.637 E2.83740
G1 X119.202 Y102.673 E2.84687
G1 X118.651 Y103.627 E2.85634
G1 X117.943 Y104.472 E2.86580
G1 X117.098 Y105.180 E2.87527
G1 X116.143 Y105.732 E2.88474
G1 X115.108 Y106.109 E2.89420
G1 X114.022 Y106.300 E2.90367
G1 X112.920 Y106.300 E2.91314
G1 X111.834 Y106.109 E2.92260
G1 X110.798 Y105.732 E2.93207
G1 X109.843 Y105.180 E2.94154
G1 X108.999 Y104.472 E2.95101
G1 X108.290 Y103.627 E2.96047
G1 X107.739 Y102.673 E2.96994
G1 X107.362 Y101.637 E2.97941
G1 X107.210 Y100.774 E2.98693
G1 X107.168 Y100.201 F7200.000
G1 X107.497 Y100.343 F7200.000
G1 X91.798 Y100.343 E3.12174 F1200.000
G1 X90.472 Y101.669 E3.13785
G1 X90.472 Y106.343 E3.17799
G1 X88.586 Y106.343 E3.19418
G1 X88.586 Y101.669 E3.23432
G1 X87.260 Y100.343 E3.25043
G1 X80.586 Y100.343 E3.30774
G1 X80.586 Y99.657 E3.31363
G1 X87.260 Y99.657 E3.37094
G1 X88.586 Y98.331 E3.38705
G1 X88.586 Y93.657 E3.42719
G1 X90.472 Y93.657 E3.44338
G1 X90.472 Y98.331 E3.48352
G1 X91.798 Y99.657 E3.49963
G1 X107.497 Y99.657 E3.63444
G1 X107.708 Y98.456 E3.64491
G1 X108.064 Y97.479 E3.65384
G1 X108.584 Y96.578 E3.66277
G1 X109.252 Y95.782 E3.67170
G1 X110.049 Y95.113 E3.68064
G1 X110.950 Y94.593 E3.68957
G1 X111.927 Y94.238 E3.69850
G1 X112.951 Y94.057 E3.70743
G1 X113.991 Y94.057 E3.71636
G1 X115.015 Y94.238 E3.72529
G1 X115.992 Y94.593 E3.73422
G1 X116.893 Y95.113 E3.74315
G1 X117.689 Y95.782 E3.75208
G1 X118.358 Y96.578 E3.76101
G1 X118.877 Y97.479 E3.76994
G1 X119.216 Y98.409 E3.77844
G1 X119.414 Y99.482 E3.78781
G1 X119.414 Y100.520 E3.79672
G1 X119.233 Y101.544 E3.80565
G1 X118.877 Y102.521 E3.81458
G1 X118.358 Y103.422 E3.82351
G1 X117.689 Y104.218 E3.83244
G1 X116.893 Y104.887 E3.84137
G1 X115.992 Y105.407 E3.85030
G1 X115.015 Y105.762 E3.85923
G1 X113.991 Y105.943 E3.86816
G1 X112.951 Y105.943 E3.87709
G1 X111.927 Y105.762 E3.88602
G1 X110.950 Y105.407 E3.89495
G1 X110.049 Y104.887 E3.90388
G1 X109.252 Y104.218 E3.91281
G1 X108.584 Y103.422 E3.92175
G1 X108.064 Y102.521 E3.93068
G1 X107.708 Y101.544 E3.93961
G1 X107.510 Y100.417 E3.94944
G1 X107.848 Y100.281 F7200.000
G1 X107.799 Y100.000 E3.95189 F1200.000
G1 X108.055 Y98.549 E3.96454
G1 X108.389 Y97.630 E3.97293
G1 X108.878 Y96.784 E3.98133
G1 X109.506 Y96.035 E3.98972
G1 X110.255 Y95.407 E3.99812
G1 X111.101 Y94.918 E4.00651
G1 X112.020 Y94.584 E4.01490
G1 X112.982 Y94.414 E4.02330
G1 X113.959 Y94.414 E4.03169
G1 X114.922 Y94.584 E4.04008
G1 X115.840 Y94.918 E4.04848 F1200.000
G1 X116.687 Y95.407 E4.05687
G1 X117.436 Y96.035 E4.06526
G1 X118.064 Y96.784 E4.07366
G1 X118.553 Y97.630 E4.08205
G1 X118.870 Y98.503 E4.09003
G1 X119.057 Y99.515 E4.09886
G1 X119.057 Y100.489 E4.10723
G1 X118.887 Y101.451 E4.11562
G1 X118.553 Y102.370 E4.12401
G1 X118.064 Y103.216 E4.13241
G1 X117.436 Y103.965 E4.14080
G1 X116.687 Y104.593 E4.14919
G1 X115.840 Y105.082 E4.15759
G1 X114.922 Y105.416 E4.16598
G1 X113.959 Y105.586 E4.17438
G1 X112.982 Y105.586 E4.18277
G1 X112.020 Y105.416 E4.19116
G1 X111.101 Y105.082 E4.19956
G1 X110.255 Y104.593 E4.20795
G1 X109.506 Y103.965 E4.21634
G1 X108.878 Y103.216 E4.22474
G1 X108.389 Y102.370 E4.23313
G1 X108.055 Y101.451 E4.24153
G1 X107.861 Y100.355 E4.25109
G1 X109.071 Y100.281 F7200.000
G1 X109.071 Y99.615 E4.252 F1000.000
G1 X109.204 Y98.857 E4.26342
G1 X109.468 Y98.133 E4.27003
G1 X109.853 Y97.467 E4.27664
G1 X110.348 Y96.877 E4.28325
G1 X110.937 Y96.382 E4.28986
G1 X111.604 Y95.997 E4.29648
G1 X112.328 Y95.734 E4.30309
G1 X113.086 Y95.600 E4.30970
G1 X113.856 Y95.600 E4.31631 F1200.000
G1 X114.614 Y95.734 E4.32292
G1 X115.337 Y95.997 E4.32953
G1 X116.004 Y96.382 E4.33615
G1 X116.594 Y96.877 E4.34276
G1 X117.089 Y97.467 E4.34937
G1 X117.474 Y98.133 E4.35598
G1 X117.737 Y98.857 E4.36259
G1 X117.871 Y99.615 E4.36920
G1 X117.871 Y100.385 E4.37582
G1 X117.846 Y100.523 E4.37702
G1 X117.737 Y101.143 E4.38243
G1 X117.474 Y101.867 E4.38904
G1 X117.089 Y102.533 E4.39565
G1 X116.594 Y103.123 E4.40226
G1 X116.004 Y103.618 E4.40887
G1 X115.337 Y104.003 E4.41549
G1 X114.614 Y104.266 E4.42210
G1 X113.856 Y104.400 E4.42871
G1 X113.086 Y104.400 E4.43532
G1 X112.328 Y104.266 E4.44193
G1 X111.604 Y104.003 E4.44855
G1 X110.937 Y103.618 E4.45516
G1 X110.348 Y103.123 E4.46177
G1 X109.853 Y102.533 E4.46838
G1 X109.468 Y101.867 E4.47499
G1 X109.204 Y101.143 E4.48160
G1 X109.071 Y100.356 E4.48846
G1 X108.626 Y100.053 F7200.000
G1 X108.714 Y100.281 F7200.000
G1 X108.714 Y99.584 E4.49445 F1200.000
G1 X108.858 Y98.764 E4.50160
G1 X109.143 Y97.982 E4.50874
G1 X109.559 Y97.261 E4.51589
G1 X110.094 Y96.623 E4.52304
G1 X110.732 Y96.088 E4.53019
G1 X111.453 Y95.672 E4.53734
G1 X112.235 Y95.387 E4.54449
G1 X113.055 Y95.243 E4.55163
G1 X113.887 Y95.243 E4.55878 F1200.000
G1 X114.707 Y95.387 E4.56593
G1 X115.489 Y95.672 E4.57308
G1 X116.210 Y96.088 E4.58023
G1 X116.847 Y96.623 E4.58738
G1 X117.382 Y97.261 E4.59452
G1 X117.799 Y97.982 E4.60167
G1 X118.083 Y98.764 E4.60882
G1 X118.228 Y99.584 E4.61597
G1 X118.228 Y100.416 E4.62312
G1 X118.198 Y100.585 E4.62459
G1 X118.083 Y101.236 E4.63027
G1 X117.799 Y102.018 E4.63741
G1 X117.382 Y102.739 E4.64456
G1 X116.847 Y103.377 E4.65171
G1 X116.210 Y103.912 E4.65886
G1 X115.489 Y104.328 E4.66601
G1 X114.707 Y104.613 E4.67316
G1 X113.887 Y104.757 E4.68030
G1 X113.055 Y104.757 E4.68745
G1 X112.235 Y104.613 E4.69460
G1 X111.453 Y104.328 E4.70175
G1 X110.732 Y103.912 E4.70890
G1 X110.094 Y103.377 E4.71605
G1 X109.559 Y102.739 E4.72319
G1 X109.143 Y102.018 E4.73034
G1 X108.858 Y101.236 E4.73749
G1 X108.714 Y100.356 E4.74515
G1 X108.357 Y100.281 F7200.000
G1 X108.357 Y99.553 E4.75140 F1200.000
G1 X108.512 Y98.671 E4.75909
G1 X108.818 Y97.830 E4.76677
G1 X109.266 Y97.055 E4.77446
G1 X109.841 Y96.370 E4.78214
G1 X110.526 Y95.795 E4.78983
G1 X111.301 Y95.347 E4.79751
G1 X112.142 Y95.041 E4.80520
G1 X113.023 Y94.886 E4.81288
G1 X113.918 Y94.886 E4.82057 F1200.000
G1 X114.799 Y95.041 E4.82825
G1 X115.640 Y95.347 E4.83594
G1 X116.415 Y95.795 E4.84362
G1 X117.101 Y96.370 E4.85131
G1 X117.676 Y97.055 E4.85899
G1 X118.123 Y97.830 E4.86668
G1 X118.430 Y98.671 E4.87436
G1 X118.585 Y99.553 E4.88205
G1 X118.585 Y100.447 E4.88973
G1 X118.550 Y100.647 E4.89147
G1 X118.430 Y101.329 E4.89742
G1 X118.123 Y102.170 E4.90510
G1 X117.676 Y102.945 E4.91279
G1 X117.101 Y103.630 E4.92047
G1 X116.415 Y104.205 E4.92816
G1 X115.640 Y104.653 E4.93584
G1 X114.799 Y104.959 E4.94353
G1 X113.918 Y105.114 E4.95121
G1 X113.023 Y105.114 E4.95890
G1 X112.142 Y104.959 E4.96658
G1 X111.301 Y104.653 E4.97427
G1 X110.526 Y104.205 E4.98195
G1 X109.841 Y103.630 E4.98964
G1 X109.266 Y102.945 E4.99732
G1 X108.818 Y102.170 E5.00501
G1 X108.512 Y101.329 E5.01269
G1 X108.357 Y100.447 E5.02038
G1 X108.357 Y100.356 E5.02116
G1 E3.02116 F2400.00000
G92 E0
G1 X91.636 Y100.000 F7200.000
G1 E2.00000 F2400.00000
G1 X90.115 Y101.521 E2.01848 F1200.000
G1 X90.115 Y105.986 E2.05682
G1 X88.943 Y105.986 E2.06688
G1 X88.943 Y101.521 E2.10522
G1 X87.422 Y100.000 E2.12370
G1 X88.943 Y98.479 E2.14217
G1 X88.943 Y94.014 E2.18051
G1 X90.115 Y94.014 E2.19058
G1 X90.115 Y98.479 E2.22892
G1 X91.583 Y99.947 E2.24675
G1 X91.889 Y100.000 F7200.000
G1 X107 Y100.000 E2.4 F1200.000
G1 E1 F3200
G1 X89.029 Y94.100 F7200.000
G1 X89.247 Y94.318 F7200.000
G1 E2.00000 F2400.00000
G1 X89.812 Y94.318 E2.00506 F1200.000
G1 X89.812 Y98.604 E2.04351
G1 X91.207 Y100.000 E2.06121
G1 X89.812 Y101.396 E2.07891
G1 X89.812 Y105.682 E2.11735
G1 X89.247 Y105.682 E2.12241
G1 X89.247 Y101.396 E2.16086
G1 X87.851 Y100.000 E2.17856
G1 X89.247 Y98.604 E2.19626
G1 X89.247 Y94.393 E2.23403
G1 X89.529 Y98.849 F7200.000
G1 X90.680 Y100.000 E2.24862 F1200.000
G1 X89.529 Y101.151 E2.26321
G1 X88.379 Y100.000 E2.27781
G1 X89.476 Y98.902 E2.29173
G1 X89.529 Y99.377 F7200.000
G1 X90.153 Y100.000 E2.29963 F1200.000
G1 X89.529 Y100.623 E2.30754
G1 X88.906 Y100.000 E2.31544
G1 X89.476 Y99.430 E2.32267
G1 X87.170 Y100.000 F7200.000
G1 X80.765 Y100.000 E2.43929 F1200.000
M140 S63 ; wait for bed temperature to be reached
G1 Z0.400 F7200.000
G1 X107.232 Y99.100 F7200.000
G1 X107.363 Y98.363 E2.45381 F900.000
G1 X107.733 Y97.344 E2.47487
G1 X108.291 Y96.373 E2.49660
G1 X108.999 Y95.528 E2.51799
